X: 21
T: THE LIMERICK LASSES
R: reel
Z: 2006 John Chambers <jc:trillian.mit.edu>
B: "Rinnci na h-\'Eireann" Elizabeth Burchenal, ed. G.Schirmer (1925) p.116
M: 2/4
L: 1/8
Q: 1/4=112
K: D
(c \
| "D"d)>(B A)>F | D2 D>F | "G"G>F G>A | "A7"B>E E>(c \
| "D"d)>(B A)>F | D2 D>(F | "A7"G)E A>(G | "D"F)>D D :|
|: A \
| "D"d>c d>e | f2 e>d | "Em"e>d e>f | g>B B>f \
| "Em"g>f g>a | b2 a>g | "D"f>a "A7"e>g | "D"f>d d :|

%%sep 2 1 500

